content/img/illustrations/illus--php-client.svg

<?xml version="1.0" encoding="UTF-8" standalone="no"?>
<svg width="256px" height="256px" viewBox="0 0 256 256" version="1.1" xmlns="http://www.w3.org/2000/svg" xmlns:xlink="http://www.w3.org/1999/xlink">
    <!-- Generator: Sketch 50.2 (55047) - http://www.bohemiancoding.com/sketch -->
    <title>icon--php-client</title>
    <desc>Created with Sketch.</desc>
    <defs></defs>
    <g id="icon--php-client" stroke="none" stroke-width="1" fill="none" fill-rule="evenodd">
        <g id="Group-4" transform="translate(3.000000, 24.000000)">
            <path d="M22,204.559998 C22.0000012,147.36539 68.3653922,101 125.56,101 C182.754608,101 229.119999,147.36539 229.12,204.559998 L22,204.559998 Z" id="Shape" fill="#E1F2FF" fill-rule="nonzero"></path>
            <g id="Group-2" transform="translate(0.000000, 196.000000)" fill="#FFFFFF" fill-rule="nonzero" stroke="#5E63B6" stroke-linecap="round" stroke-linejoin="round" stroke-width="3">
                <path d="M17,0 L53,0" id="Shape"></path>
                <path d="M59,0 L235.89,0" id="Shape"></path>
                <path d="M243,0 L249.97,0" id="Shape"></path>
                <path d="M0,0 L8.97,0" id="Shape"></path>
                <path d="M92,10 L159.19,10" id="Shape"></path>
                <path d="M168,10 L177.14,10" id="Shape"></path>
                <path d="M84,9 L79,9.08" id="Shape"></path>
            </g>
            <g id="Group-2" transform="translate(19.000000, 0.000000)" stroke="#5E63B6" stroke-linecap="round">
                <path d="M184.98,44.4 L184.98,51.4" id="Shape" stroke-width="2" stroke-linejoin="round"></path>
                <path d="M188.48,47.9 L181.48,47.9" id="Shape" stroke-width="2" stroke-linejoin="round"></path>
                <path d="M58,0 L58,7" id="Shape" stroke-width="2" stroke-linejoin="round"></path>
                <path d="M62,4 L55,4" id="Shape" stroke-width="2" stroke-linejoin="round"></path>
                <path d="M20.73,164.68 L20.73,168.62" id="Shape"></path>
                <path d="M22.7,166.65 L18.76,166.65" id="Shape"></path>
                <path d="M195.73,104.68 L195.73,108.62" id="Shape" stroke-linejoin="round"></path>
                <path d="M197.7,106.65 L193.76,106.65" id="Shape" stroke-linejoin="round"></path>
                <path d="M26.73,64.68 L26.73,68.62" id="Shape"></path>
                <path d="M28.7,66.65 L24.76,66.65" id="Shape"></path>
                <path d="M4.42,103.28 L4.42,111.4" id="Shape" stroke-width="2" fill="#FFFFFF" fill-rule="nonzero"></path>
                <path d="M8.48,107.34 L0.35,107.34" id="Shape" stroke-width="2" fill="#FFFFFF" fill-rule="nonzero"></path>
            </g>
        </g>
        <g id="Group" transform="translate(44.000000, 26.000000)">
            <rect id="Rectangle-path" stroke="#5E63B6" stroke-width="2" fill="#FFFFFF" fill-rule="nonzero" x="0" y="0" width="116.18" height="116.18" rx="2"></rect>
            <path d="M14,12 L101.97,12 C103.074569,12 103.97,12.8954305 103.97,14 L103.97,101.97 C103.97,103.074569 103.074569,103.97 101.97,103.97 L14,103.97 C12.8954305,103.97 12,103.074569 12,101.97 L12,14 C12,12.8954305 12.8954305,12 14,12 Z" id="Rectangle-path" stroke="#E1F2FF" stroke-width="2" fill="#FFFFFF" fill-rule="nonzero" stroke-linecap="round" stroke-linejoin="round" stroke-dasharray="50"></path>
            <text id="O" fill="#5E63B6" font-family="Lato-Black, Lato" font-size="18" font-weight="700">
                <tspan x="51" y="96">O</tspan>
            </text>
            <text id="I" fill="#5E63B6" font-family="Lato-Black, Lato" font-size="18" font-weight="700">
                <tspan x="56" y="33">I</tspan>
            </text>
            <rect id="Rectangle-path" stroke="#5E63B6" stroke-width="2" fill="#FFFFFF" fill-rule="nonzero" x="47" y="43" width="22" height="24"></rect>
            <rect id="Rectangle-path" stroke="#5E63B6" stroke-width="2" fill="#E1F2FF" fill-rule="nonzero" x="47" y="67" width="22" height="9.38"></rect>
            <path d="M55,47 L62.72,47" id="Shape" stroke="#E1F2FF" stroke-width="2" fill="#FFFFFF" fill-rule="nonzero" stroke-linecap="round" stroke-linejoin="round" stroke-dasharray="50"></path>
        </g>
        <ellipse id="Oval-2" stroke="#5E63B6" stroke-width="4" fill="#FFFFFF" cx="96.5" cy="188.5" rx="31.5" ry="30.5"></ellipse>
        <ellipse id="Oval-2" stroke="#5E63B6" stroke-width="3" fill="#FFFFFF" cx="97" cy="188.5" rx="16" ry="15.5"></ellipse>
        <path d="M101.126796,196.366214 C101.191845,196.567864 101.256893,196.704466 101.269903,196.75 C100.814563,192.365728 103.299417,190.537864 104.099515,187.643204 C104.096012,187.595566 104.096012,187.547735 104.099515,187.500097 C104.115975,187.433594 104.129002,187.366288 104.138544,187.298447 C104.186325,186.321747 103.889309,185.359323 103.299417,184.579417 L103.136796,184.338738 C103.032718,184.189126 102.922136,184.039515 102.811553,183.889903 L102.779029,183.844369 L102.681456,183.720777 L102.583883,183.597184 L102.479806,183.473592 L102.375728,183.343495 L102.29767,183.252427 C101.221829,182.039333 100.015475,180.948596 98.7004854,180 C98.8808645,181.533419 98.8961299,183.081769 98.7460194,184.618447 C98.4964599,186.394382 97.9742596,188.121154 97.1978641,189.737767 C95.4113577,189.604349 93.6561064,189.196253 91.9939806,188.527864 C90.5812718,187.895205 89.2419842,187.109955 88,186.186117 C88,186.322718 88,186.45932 88.045534,186.595922 L88.045534,186.719515 C88.045534,186.817087 88.045534,186.91466 88.0845631,187.012233 C88.1235922,187.109806 88.0845631,187.103301 88.0845631,187.148835 L88.1300971,187.441553 L88.1300971,187.558641 C88.1300971,187.682233 88.1691262,187.805825 88.1951456,187.922913 L88.1951456,187.955437 C88.1951456,188.098544 88.2471845,188.235146 88.2732039,188.378252 L88.3512621,188.755534 L88.3512621,188.833592 L88.4293204,189.171845 L88.4293204,189.236893 C88.4293204,189.36699 88.4943689,189.497087 88.5268932,189.627184 C88.6353074,190.039159 88.7545631,190.435955 88.8846602,190.817573 C89.0860771,191.415996 89.3362697,191.996878 89.6327184,192.554369 L89.7563107,192.775534 L89.8733981,192.964175 L90.0034951,193.15932 L90.1726214,193.393495 L90.1726214,193.432524 C90.2376699,193.517087 90.3092233,193.595146 90.3807767,193.673204 L90.5303883,193.82932 L90.5954369,193.887864 L90.6930097,193.972427 L90.7645631,194.030971 L90.8556311,194.102524 L90.9271845,194.154563 L91.0247573,194.219612 L91.0963107,194.265146 L91.2003883,194.323689 L91.2719417,194.362718 L91.3890291,194.414757 L91.4475728,194.414757 L91.6297087,194.473301 L91.7402913,194.51233 C94.6674757,195.286408 97.5166019,194.05699 101.094272,196.613398" id="Fill-7" fill="#9452BA" fill-rule="nonzero"></path>
        <path d="M123.5,174.189394 L144.225567,174.189394 C153.5,174.189394 157.729261,162.933394 157.729261,150.542394 L157.729261,111.042394 C157.729261,93.1626929 176.491552,96.1626929 180.5,96.1626929" id="Stroke-633" stroke="#5E63B6" stroke-width="5" transform="translate(152.000000, 135.081346) scale(-1, -1) translate(-152.000000, -135.081346) "></path>
        <path d="M202.517,92.987 L194,92.987 L194,90 L202.517,90 C203.092,90 203.559,90.466 203.559,91.042 L203.559,91.945 C203.559,92.521 203.092,92.987 202.517,92.987 Z" id="Stroke-630" stroke="#5E63B6" stroke-width="2" fill="#5E63B6"></path>
        <path d="M202.517,101.986 L194,101.986 L194,99 L202.517,99 C203.092,99 203.559,99.465 203.559,100.041 L203.559,100.945 C203.559,101.52 203.092,101.986 202.517,101.986 Z" id="Stroke-632" stroke="#5E63B6" stroke-width="2" fill="#5E63B6"></path>
        <path d="M183.075,84 L192.601,84 C193.536,84 194.293,84.758 194.293,85.691 L194.293,105.82 C194.293,106.755 193.536,107.512 192.601,107.512 L183.075,107.512 C180.824,107.512 179,105.687 179,103.437 L179,88.075 C179,85.825 180.824,84 183.075,84 Z" id="Stroke-628" stroke="#5E63B6" stroke-width="2" fill="#5E63B6"></path>
        <path d="M161.048,159.88 C161.508002,159.818666 162.05233,159.757334 162.681,159.696 C163.30967,159.634666 163.968997,159.581 164.659,159.535 C165.349003,159.489 166.038997,159.450667 166.729,159.42 C167.419003,159.389333 168.085997,159.374 168.73,159.374 C170.416675,159.374 172.018992,159.542665 173.537,159.88 C175.055008,160.217335 176.388994,160.799996 177.539,161.628 C178.689006,162.456004 179.60133,163.552327 180.276,164.917 C180.95067,166.281673 181.288,167.991323 181.288,170.046 C181.288,172.192677 180.92767,173.978993 180.207,175.405 C179.48633,176.831007 178.535673,177.973329 177.355,178.832 C176.174327,179.690671 174.832674,180.296332 173.33,180.649 C171.827326,181.001668 170.294008,181.178 168.73,181.178 C168.14733,181.178 167.633669,181.170333 167.189,181.155 C166.744331,181.139667 166.261336,181.101334 165.74,181.04 L165.74,193 C165.003996,193.092 164.222004,193.138 163.394,193.138 C163.025998,193.138 162.635002,193.130333 162.221,193.115 C161.806998,193.099667 161.416002,193.061334 161.048,193 L161.048,159.88 Z M165.74,176.946 C166.230669,177.007334 166.659998,177.053333 167.028,177.084 C167.396002,177.114667 167.932663,177.13 168.638,177.13 C169.588671,177.13 170.531662,177.030334 171.467,176.831 C172.402338,176.631666 173.237996,176.271336 173.974,175.75 C174.710004,175.228664 175.300331,174.515671 175.745,173.611 C176.189669,172.706329 176.412,171.533341 176.412,170.092 C176.412,168.83466 176.220335,167.776671 175.837,166.918 C175.453665,166.059329 174.92467,165.369336 174.25,164.848 C173.57533,164.326664 172.762671,163.958668 171.812,163.744 C170.861329,163.529332 169.834006,163.422 168.73,163.422 C167.595328,163.422 166.598671,163.468 165.74,163.56 L165.74,176.946 Z M187.084,159.926 C187.452002,159.864666 187.835331,159.818667 188.234,159.788 C188.632669,159.757333 189.031331,159.742 189.43,159.742 C189.828669,159.742 190.227331,159.757333 190.626,159.788 C191.024669,159.818667 191.407998,159.864666 191.776,159.926 L191.776,173.542 L205.852,173.542 L205.852,159.926 C206.189335,159.864666 206.557331,159.818667 206.956,159.788 C207.354669,159.757333 207.753331,159.742 208.152,159.742 C208.550669,159.742 208.956998,159.757333 209.371,159.788 C209.785002,159.818667 210.175998,159.864666 210.544,159.926 L210.544,193 C210.206665,193.061334 209.838669,193.107333 209.44,193.138 C209.041331,193.168667 208.627335,193.184 208.198,193.184 C207.799331,193.184 207.393002,193.168667 206.979,193.138 C206.564998,193.107333 206.189335,193.061334 205.852,193 L205.852,177.682 L191.776,177.682 L191.776,193 C191.407998,193.061334 191.032335,193.107333 190.649,193.138 C190.265665,193.168667 189.859335,193.184 189.43,193.184 C189.031331,193.184 188.625002,193.168667 188.211,193.138 C187.796998,193.107333 187.421335,193.061334 187.084,193 L187.084,159.926 Z M218.64,159.88 C219.100002,159.818666 219.64433,159.757334 220.273,159.696 C220.90167,159.634666 221.560997,159.581 222.251,159.535 C222.941003,159.489 223.630997,159.450667 224.321,159.42 C225.011003,159.389333 225.677997,159.374 226.322,159.374 C228.008675,159.374 229.610992,159.542665 231.129,159.88 C232.647008,160.217335 233.980994,160.799996 235.131,161.628 C236.281006,162.456004 237.19333,163.552327 237.868,164.917 C238.54267,166.281673 238.88,167.991323 238.88,170.046 C238.88,172.192677 238.51967,173.978993 237.799,175.405 C237.07833,176.831007 236.127673,177.973329 234.947,178.832 C233.766327,179.690671 232.424674,180.296332 230.922,180.649 C229.419326,181.001668 227.886008,181.178 226.322,181.178 C225.73933,181.178 225.225669,181.170333 224.781,181.155 C224.336331,181.139667 223.853336,181.101334 223.332,181.04 L223.332,193 C222.595996,193.092 221.814004,193.138 220.986,193.138 C220.617998,193.138 220.227002,193.130333 219.813,193.115 C219.398998,193.099667 219.008002,193.061334 218.64,193 L218.64,159.88 Z M223.332,176.946 C223.822669,177.007334 224.251998,177.053333 224.62,177.084 C224.988002,177.114667 225.524663,177.13 226.23,177.13 C227.180671,177.13 228.123662,177.030334 229.059,176.831 C229.994338,176.631666 230.829996,176.271336 231.566,175.75 C232.302004,175.228664 232.892331,174.515671 233.337,173.611 C233.781669,172.706329 234.004,171.533341 234.004,170.092 C234.004,168.83466 233.812335,167.776671 233.429,166.918 C233.045665,166.059329 232.51667,165.369336 231.842,164.848 C231.16733,164.326664 230.354671,163.958668 229.404,163.744 C228.453329,163.529332 227.426006,163.422 226.322,163.422 C225.187328,163.422 224.190671,163.468 223.332,163.56 L223.332,176.946 Z" id="PHP" fill="#5E63B6"></path>
    </g>
</svg>

<svg xmlns="http://www.w3.org/2000/svg" width="256" height="256">
  <g fill="none" fill-rule="evenodd">
    <path fill="#E1F2FF" fill-rule="nonzero" d="M25 228.56C25 171.36 71.37 125 128.56 125c57.2 0 103.56 46.37 103.56 103.56H25z"/>
    <g fill="#FFF" fill-rule="nonzero" stroke="#375D81" stroke-width="3" stroke-linecap="round" stroke-linejoin="round">
      <path d="M20 220h36M62 220h176.9M246 220h6.97M3 220h8.97M95 230h67.2M171 230h9.14M87 229l-5 .08"/>
    </g>
    <g stroke="#375D81" stroke-linecap="round">
      <path stroke-width="2" d="M206.98 68.4v7M210.48 71.9h-7M80 24v7M84 28h-7" stroke-linejoin="round"/>
      <path d="M42.73 188.68v3.94M44.7 190.65h-3.94"/>
      <path d="M217.73 128.68v3.94M219.7 130.65h-3.94" stroke-linejoin="round"/>
      <path d="M48.73 88.68v3.94M50.7 90.65h-3.94"/>
      <path fill="#FFF" fill-rule="nonzero" stroke-width="2" d="M26.42 127.28v8.12M30.48 131.34h-8.13"/>
    </g>
    <g transform="translate(44 26)">
      <rect width="116.18" height="116.18" fill="#FFF" fill-rule="nonzero" stroke="#375D81" stroke-width="2" rx="2"/>
      <rect width="91.97" height="91.97" x="12" y="12" fill="#FFF" fill-rule="nonzero" stroke="#E1F2FF" stroke-width="2" stroke-linejoin="round" rx="2" stroke-linecap="round" stroke-dasharray="50"/>
      <text fill="#375D81" font-family="Lato-Black, Lato" font-size="18" font-weight="700">
        <tspan x="51" y="96">O</tspan>
      </text>
      <text fill="#375D81" font-family="Lato-Black, Lato" font-size="18" font-weight="700">
        <tspan x="56" y="33">I</tspan>
      </text>
      <path fill="#FFF" fill-rule="nonzero" stroke="#375D81" stroke-width="2" d="M47 43h22v24H47z"/>
      <path fill="#E1F2FF" fill-rule="nonzero" stroke="#375D81" stroke-width="2" d="M47 67h22v9.38H47z"/>
      <path fill="#FFF" fill-rule="nonzero" stroke="#E1F2FF" stroke-width="2" d="M55 47h7.72" stroke-linecap="round" stroke-linejoin="round" stroke-dasharray="50"/>
    </g>
    <ellipse cx="96.5" cy="188.5" fill="#FFF" stroke="#375D81" stroke-width="4" rx="31.5" ry="30.5"/>
    <ellipse cx="97" cy="188.5" fill="#FFF" stroke="#375D81" stroke-width="3" rx="16" ry="15.5"/>
    <path fill="#9452BA" fill-rule="nonzero" d="M101.13 196.37c.06.2.13.33.14.38-.46-4.38 2.03-6.2 2.83-9.1v-.15l.04-.2c.05-.98-.25-1.94-.84-2.72l-.16-.24-.33-.45-.02-.06-.1-.12-.1-.12-.1-.13-.1-.13-.08-.1c-1.08-1.2-2.28-2.3-3.6-3.24.18 1.53.2 3.08.05 4.62-.25 1.77-.78 3.5-1.55 5.12-1.8-.14-3.54-.54-5.2-1.2-1.42-.64-2.76-1.43-4-2.35 0 .12 0 .26.05.4v.12c0 .1 0 .2.03.3.04.1 0 .08 0 .13l.05.3v.1c0 .13.04.26.07.37v.04c0 .14.05.28.07.42l.08.38v.07l.08.34v.07c0 .13.06.26.1.4.1.4.22.8.35 1.18.2.6.46 1.18.75 1.73l.13.23.1.18.14.2.17.23v.03c.07.1.14.17.2.24l.16.16.07.06.1.07.06.06.1.07.07.05.1.07.07.05.1.05.07.04.12.05h.05l.18.07.1.04c2.94.8 5.8-.44 9.36 2.1"/>
    <path stroke="#375D81" stroke-width="5" d="M180.5 95.97h-20.73c-9.27 0-13.5 11.26-13.5 23.65v39.5C146.27 177 127.5 174 123.5 174"/>
    <path fill="#375D81" stroke="#375D81" stroke-width="2" d="M202.52 93H194v-3h8.52c.57 0 1.04.47 1.04 1.04v.9c0 .58-.47 1.05-1.04 1.05zM202.52 102H194v-3h8.52c.57 0 1.04.47 1.04 1.04v.9c0 .58-.47 1.05-1.04 1.05z"/>
    <path fill="#375D81" stroke="#375D81" stroke-width="2" d="M183.07 84h9.53c.94 0 1.7.76 1.7 1.7v20.12c0 .94-.76 1.7-1.7 1.7h-9.53c-2.25 0-4.07-1.83-4.07-4.08V88.08c0-2.25 1.82-4.08 4.07-4.08z"/>
    <path fill="#375D81" d="M161.05 159.88l1.63-.18c.63-.07 1.3-.12 1.98-.16.7-.05 1.38-.1 2.07-.12.7-.03 1.36-.05 2-.05 1.7 0 3.3.17 4.8.5 1.53.35 2.86.93 4 1.76 1.16.83 2.07 1.92 2.75 3.3.67 1.35 1 3.06 1 5.12 0 2.14-.35 3.93-1.07 5.35-.7 1.43-1.66 2.57-2.84 3.43-1.2.86-2.53 1.47-4.03 1.82-1.5.35-3.04.53-4.6.53-.58 0-1.1 0-1.54-.03-.46 0-.94-.05-1.46-.1V193c-.74.1-1.52.14-2.35.14-.37 0-.76 0-1.18-.02-.4-.02-.8-.06-1.17-.12v-33.12zm4.7 17.07c.48.06.9.1 1.28.13.37.03.9.05 1.6.05.96 0 1.9-.1 2.84-.3.93-.2 1.77-.56 2.5-1.08.74-.52 1.33-1.23 1.78-2.14.44-.9.66-2.07.66-3.5 0-1.27-.18-2.32-.56-3.18-.4-.86-.92-1.55-1.6-2.07-.66-.52-1.48-.9-2.43-1.1-.94-.22-1.97-.33-3.07-.33-1.13 0-2.13.05-3 .14v13.4zm21.33-17.02c.37-.07.76-.1 1.15-.14.4-.04.8-.06 1.2-.06.4 0 .8.02 1.2.05.4.02.78.06 1.15.13v13.6h14.07v-13.6c.34-.07.7-.1 1.1-.14.4-.04.8-.06 1.2-.06.4 0 .8.02 1.22.05.42.02.8.06 1.17.13V193c-.33.06-.7.1-1.1.14-.4.03-.8.04-1.24.04-.4 0-.8 0-1.22-.04-.42-.03-.8-.08-1.13-.14v-15.32h-14.07V193c-.37.06-.75.1-1.13.14-.38.03-.8.04-1.22.04-.4 0-.8 0-1.22-.04-.4-.03-.78-.08-1.12-.14v-33.07zm31.56-.05l1.63-.18c.63-.07 1.3-.12 1.98-.16.7-.05 1.38-.1 2.07-.12.7-.03 1.36-.05 2-.05 1.7 0 3.3.17 4.8.5 1.53.35 2.86.93 4 1.76 1.16.83 2.07 1.92 2.75 3.3.67 1.35 1 3.06 1 5.12 0 2.14-.35 3.93-1.07 5.35-.72 1.43-1.67 2.57-2.85 3.43-1.18.86-2.53 1.47-4.03 1.82-1.5.35-3.03.53-4.6.53-.58 0-1.1 0-1.54-.03-.44 0-.93-.05-1.45-.1V193c-.73.1-1.52.14-2.34.14-.38 0-.77 0-1.2-.02-.4-.02-.8-.06-1.16-.12v-33.12zm4.7 17.07c.48.06.9.1 1.28.13.37.03.9.05 1.6.05.96 0 1.9-.1 2.84-.3.93-.2 1.77-.56 2.5-1.08.74-.52 1.33-1.23 1.78-2.14.44-.9.66-2.07.66-3.5 0-1.27-.2-2.32-.57-3.18-.38-.86-.9-1.55-1.6-2.07-.66-.52-1.48-.9-2.43-1.1-.95-.22-1.97-.33-3.08-.33-1.13 0-2.13.05-3 .14v13.4z"/>
  </g>
</svg>
